lib/svgs/user-switch.svg

<?xml version="1.0" encoding="UTF-8"?>
<svg width="16px" height="17px" viewBox="0 0 16 17" version="1.1" xmlns="http://www.w3.org/2000/svg" xmlns:xlink="http://www.w3.org/1999/xlink">
    <!-- Generator: sketchtool 51.3 (57544) - http://www.bohemiancoding.com/sketch -->
    <title>user/user-switch</title>
    <desc>Created with sketchtool.</desc>
    <defs></defs>
    <g id="Icons" stroke="none" stroke-width="1" fill="none" fill-rule="evenodd">
        <g id="Web" transform="translate(-336.000000, -2248.000000)" fill="#000000">
            <g id="user/user-switch" transform="translate(336.000000, 2248.000000)">
                <path d="M0.456863143,15.7331945 C0.147206637,15.6703104 -0.0519263161,15.3682762 0.0119105636,15.0576669 L0.588348059,12.2507498 C0.598828741,12.2021576 0.615026158,12.1554709 0.636940311,12.1116426 C0.87894878,11.6257201 1.29436489,11.2569906 1.80601272,11.0740551 L5.25606259,9.84400417 C5.35515267,9.80875096 5.42184792,9.71347204 5.42184792,9.60866522 L5.42184792,9.1055925 C5.42184792,8.80260552 5.28750464,8.51772153 5.05311848,8.32430531 C4.21656952,7.63543869 3.73636374,6.62643487 3.73636374,5.55645254 L3.73636374,4.11011846 C3.73636374,2.11974172 5.35610546,0.5 7.34743499,0.5 C9.33781173,0.5 10.9575535,2.11974172 10.9575535,4.11011846 L10.9575535,5.55645254 C10.9575535,6.62167093 10.480206,7.62781637 9.64937382,8.31858858 C9.41117651,8.51581595 9.27397485,8.80641667 9.27397485,9.11607318 L9.27397485,9.60961801 C9.27397485,9.71442483 9.3406701,9.80970375 9.43976018,9.84495696 C9.73703043,9.95071656 9.89233508,10.2775233 9.78562268,10.5747935 C9.67986307,10.8720638 9.35115078,11.029274 9.05578612,10.9216088 C8.50221556,10.7234286 8.13062776,10.1965362 8.13062776,9.60961801 L8.13062776,9.11607318 C8.13062776,8.46531812 8.41837011,7.85362742 8.91953725,7.43821131 C9.48739965,6.96658063 9.81420636,6.28057237 9.81420636,5.55645254 L9.81420636,4.11011846 C9.81420636,2.74953542 8.70801804,1.6433471 7.34743499,1.6433471 C5.98685194,1.6433471 4.87971084,2.74953542 4.87971084,4.11011846 L4.87971084,5.55645254 C4.87971084,6.28343074 5.20842313,6.97134458 5.78009668,7.44297526 C6.27935824,7.85362742 6.56519502,8.45960139 6.56519502,9.1055925 L6.56519502,9.60866522 C6.56519502,10.1955834 6.19360721,10.7234286 5.64003666,10.920656 L2.18998679,12.1516597 C1.97942036,12.2269301 1.80410714,12.371754 1.69167801,12.5632647 L1.13143793,15.2891947 C1.07617615,15.5588341 0.837978843,15.7455808 0.572150642,15.7455808 C0.534039072,15.7455808 0.494974713,15.7408168 0.456863143,15.7331945 Z M12.5942493,12.8863063 C12.5942493,12.5801794 12.3421589,12.333065 12.0319659,12.333065 L11.5071681,12.333065 C11.7442642,11.638747 12.4040101,11.1343753 13.1883955,11.1343753 C13.5988624,11.1343753 13.9849637,11.2680753 14.3035909,11.5207222 C14.5453728,11.7125125 14.8996114,11.6747077 15.0945363,11.4368139 C15.2894612,11.1989201 15.2510385,10.850378 15.0092566,10.6585877 C14.4957044,10.2519553 13.8490785,10.0278925 13.1883955,10.0278925 C11.5858878,10.0278925 10.2832645,11.3104904 10.2832645,12.8863063 C10.2832645,13.1915112 10.5344178,13.4395477 10.8455479,13.4395477 L12.0319659,13.4395477 C12.3421589,13.4395477 12.5942493,13.1915112 12.5942493,12.8863063 L12.5942493,12.8863063 Z M15.4377166,12.3329727 L14.2503614,12.3329727 C13.9401684,12.3329727 13.688078,12.5810093 13.688078,12.8862141 C13.688078,13.191419 13.9401684,13.4394555 14.2503614,13.4394555 L14.7760964,13.4394555 C14.5390003,14.1337735 13.8792544,14.6381452 13.094869,14.6381452 C12.6844021,14.6381452 12.2983008,14.5044452 11.9796736,14.2517983 C11.7360174,14.06093 11.3836532,14.0987348 11.1887282,14.3357066 C10.9938033,14.5736004 11.032226,14.9221425 11.2740079,15.1139328 C11.7875601,15.5214873 12.434186,15.744628 13.094869,15.744628 C14.6964396,15.744628 16,14.46203 16,12.8862141 C16,12.5810093 15.7488467,12.3329727 15.4377166,12.3329727" id="Combined-Shape"></path>
            </g>
        </g>
    </g>
</svg>

<svg xmlns="http://www.w3.org/2000/svg" viewBox="0 0 16 17">
    <path d="M.457 15.733a.57.57 0 0 1-.445-.675l.576-2.807a.588.588 0 0 1 .049-.14 2.084 2.084 0 0 1 1.169-1.037l3.45-1.23a.25.25 0 0 0 .166-.235v-.503a1.01 1.01 0 0 0-.369-.782 3.58 3.58 0 0 1-1.317-2.768V4.11a3.615 3.615 0 0 1 7.222 0v1.446A3.588 3.588 0 0 1 9.649 8.32a1.033 1.033 0 0 0-.375.797v.494c0 .104.067.2.166.235a.57.57 0 1 1-.384 1.077A1.397 1.397 0 0 1 8.13 9.61v-.494c0-.65.287-1.262.789-1.678a2.446 2.446 0 0 0 .894-1.882V4.11a2.47 2.47 0 0 0-4.934 0v1.446c0 .727.328 1.415.9 1.887.5.41.785 1.017.785 1.663v.503c0 .587-.371 1.114-.925 1.312l-3.45 1.23a.944.944 0 0 0-.498.412l-.56 2.726a.572.572 0 0 1-.675.444zm12.137-2.847a.558.558 0 0 0-.562-.553h-.525a1.775 1.775 0 0 1 2.797-.812.569.569 0 0 0 .79-.084.548.548 0 0 0-.085-.778 2.944 2.944 0 0 0-1.82-.631 2.885 2.885 0 0 0-2.906 2.858c0 .306.251.554.563.554h1.186c.31 0 .562-.248.562-.554zm2.844-.553H14.25a.558.558 0 0 0-.562.553c0 .305.252.553.562.553h.526a1.775 1.775 0 0 1-2.796.813.57.57 0 0 0-.791.084.548.548 0 0 0 .085.778c.514.407 1.16.63 1.82.63A2.886 2.886 0 0 0 16 12.887a.558.558 0 0 0-.562-.553"/>
</svg>
